static/img/chickensoft/chicken.svg

<svg clip-rule="evenodd" fill-rule="evenodd" stroke-linecap="round" stroke-linejoin="round" stroke-miterlimit="1.5" viewBox="0 0 512 512" xmlns="http://www.w3.org/2000/svg" xmlns:xlink="http://www.w3.org/1999/xlink"><clipPath id="a"><path clip-rule="evenodd" d="m488.873 158.426c0-49.832-40.4-90.29-90.161-90.29h-203.793c-49.761 0-90.161 40.458-90.161 90.29v203.536c0 49.832 40.4 90.289 90.161 90.289h203.793c49.761 0 90.161-40.457 90.161-90.289z"/></clipPath><clipPath id="b"><path clip-rule="evenodd" d="m0 0h647v940h-647z"/></clipPath><path d="m488.873 164.165c0-53-43.023-96.029-96.016-96.029h-192.083c-52.993 0-96.016 43.029-96.016 96.029v192.058c0 52.999 43.023 96.028 96.016 96.028h192.083c52.993 0 96.016-43.029 96.016-96.028z" stroke="#fff" stroke-width="5.81" transform="matrix(1.2907965268 0 0 1.2906186132 -127.127770724 -79.811648804)"/><g transform="matrix(1.09970731276 0 0 1.09813611328 -70.410027004 -29.72810752304)"><path d="m488.873 158.426c0-49.832-40.4-90.29-90.161-90.29h-203.793c-49.761 0-90.161 40.458-90.161 90.29v203.536c0 49.832 40.4 90.289 90.161 90.289h203.793c49.761 0 90.161-40.457 90.161-90.289z" fill="#323232"/><g clip-path="url(#a)"><g clip-path="url(#b)" transform="matrix(.523858 0 0 .524607 127.347937 106.47671)"><path d="m706.409 687.974c-45.51-9.649-120.471-2.476-151.74 31.969-21.166 23.316-14.805 72.158-17.111 103.563-3.316 45.144-21.993 113.507 3.602 150.841 57.999 84.603 226.333 87.613 328.698 94.103 24.535 1.56 62.115 6.57 81.5-8.55 33.139-25.85 49.132-93.916 38.722-134.632-14.373-56.205-96.842-94.761-141.384-131.93-40.761-34.012-90.326-94.347-142.287-105.364z" fill="#424242" transform="translate(-473.173 -426.392)"/><path d="m562.89 854.937c-.567.9 10.747 15.763 17.27 20.444 6.512 4.671 16.966 8.37 24.853 9.795 8.069 1.458 19.415 1.638 27.326-.515 2.778-.755 6.583-2.24 8.56-4.331 6.332-6.7 11.537-28.116 9.852-29.106-1.348-.791-6.023 3.955-8.765 5.363-6.123 3.143-14.453 7.549-21.245 8.662-9.186 1.505-21.78-.698-30.936-2.371-8.081-1.477-26.321-8.884-26.915-7.941z" fill="#c96e3d" transform="translate(-473.173 -426.392)"/><path d="m561.623 844.452c-1.106-3.418 13.788-16.828 21.821-21.129 7.489-4.01 19.155-5.9 27.646-6.121 7.258-.189 17.609.214 23.894 3.85 6.086 3.522 15.015 15.712 14.81 18.167-.154 1.843-8.42 7.399-15.797 10.071-6.554 2.374-15.918 4.057-22.907 4.345-12.165.501-28.565-1.635-40.284-4.938-2.965-.835-8.815-3.107-9.183-4.245z" fill="#ffaa5e" transform="translate(-473.173 -426.392)"/><path d="m567.505 616.243c-7.192 5.219-16.819 12.278-23.018 18.646-14.868 15.271-33.113 37.925-42.013 57.291-18.704 40.7-28.92 101.618-29.282 146.409-.589 72.879 12.178 174.821 48.379 238.071 20.617 36.03 62.719 77.11 99.726 95.91 46.222 23.48 118.966 32.28 170.596 27.58 58.197-5.29 139.435-27.59 183.12-66.41 43.297-38.47 63.587-119.38 86.847-172.42 3.41-7.784 10.31-26.364 10.34-26.376.02-.011 19.35 10.923 26.27 10.051 5.08-.639 15.04-5.6 17.23-11.398 1.67-4.43-.52-11.749-3.55-15.381-2.75-3.277-8.87-4.79-13.04-5.738-5.62-1.279-19.2-.384-19.21-.403 0-.02 13.29-7.568 18.46-11.562 4.67-3.605 10.89-8.664 14.34-13.454 2.76-3.85 8.16-9.806 6.69-14.315-1.72-5.292-10.98-7.78-16.51-8.46-3.32-.41-7.93.705-10.95 2.149-6.18 2.955-16.91 15.352-16.93 15.338-.01-.008 2.42-9.373 2.14-13.448-.2-2.829-.57-7.124-2.62-9.08-2.13-2.029-6.72-3.011-9.55-2.225-5.56 1.542-10.85 8.963-12.72 14.418-3.28 9.526 3.65 33.355 3.63 33.382-.01.017-21.57 4.659-21.59 4.656-.04-.003-20.75-7.723-27.86-13.75-16.402-13.914-32.95-39.434-39.256-60-4.715-15.383-.175-37.587-1.702-53.603-2.563-26.871-5.205-63.518-14.792-88.75-12.22-32.164-35.81-74.165-61.985-96.498-22.809-19.462-62.102-33.678-91.215-40.854-12.77-3.148-30.532-4.486-43.67-3.873-29.641 1.381-68.372 11.741-96.85 20.073-15.145 4.431-35.193 11.257-49.307 18.314-12.792 6.397-28.573 17.309-40.148 25.71zm315.16 263.25c3.524 4.98 8.082 14.579 11.665 19.523 8.319 11.479 20.528 25.952 29.834 36.645 5.062 5.816 14.19 14.253 17.433 18.885.675.964 3.156 3.712 2.6 4.676-.74 1.281-5.075-.35-7.082-.64-4.89-.707-13.671-5.9-16.955-3.56-.738.527-.522 4.795-.129 6.796.958 4.889 5.771 10.198 7.163 14.981 1.075 3.696 4.459 10.097 1.646 12.724-3.461 3.232-10.668-2.877-15.26-4.036-2.645-.667-6.772-3.917-8.838-2.135-1.648 1.42-.112 5.097.219 7.247.525 3.401 2.33 7.686 3.254 11.001 1.475 5.29 3.878 12.28 4.611 17.73.789 5.85 5.01 16.22.227 19.69-13.666 9.91-28.726-27.16-39.072-40.497-17.127-22.085-46.613-71.706-54.47-88.943 5.677 16.141 27.534 76.298 43.602 101.17 7.864 12.17 18.996 29.53 31.76 36.39 7.101 3.81 19.594 8.84 26.467 4.63 4.873-2.99 6.414-12.15 6.617-17.86.281-7.91-5.343-17.68-7.94-25.15-1.113-3.2-3.977-10.577-3.97-10.586.016-.02 14.386 11.296 21.836 12.576 2.894.49 7.469.68 9.713-1.22 2.574-2.17 3.394-7.45 3.041-10.806-.628-5.964-7.252-11.972-10.136-17.23-2.354-4.292-7.447-14.52-7.433-14.528.01-.005 5.58 6.317 8.784 7.77 4.179 1.896 11.115 3.773 15.204 1.689 2.479-1.263 5.044-4.987 5.067-7.769.065-7.839-11.74-14.026-16.892-19.934-16.908-19.384-55.077-61.111-62.566-69.229z" fill="#ffdf5e" transform="translate(-473.173 -426.392)"/><path d="m567.473 594.884c-.009-.002-5.118-3.715-7.133-5.522-16.776-15.044-43.046-34.238-50.677-55.441-3.937-10.939-7.199-29.625 0-38.754 3.875-4.914 13.532-6.589 19.79-6.597 7.588-.011 17.259 4.596 23.912 8.245 11.248 6.169 32.954 27.243 32.984 27.212.023-.025-13.991-19.809-16.492-29.685-2.976-11.753-2.813-28.839.824-40.404 2.738-8.706 8.469-21.214 16.492-25.562 5.007-2.714 13.462-2.292 18.965-.825 5.371 1.433 11.923 5.785 15.667 9.895 5.364 5.889 8.868 16.41 11.543 23.913 2.479 6.951 5.75 23.92 5.773 23.913.019-.006-2.008-14.305-.439-20.142 1.481-5.513 6.26-11.841 9.842-16.286 4.352-5.401 10.705-12.639 16.878-15.802 7.701-3.945 19.82-6.546 28.369-5.206 3.047.478 7.023 2.268 9.336 4.309 9.179 8.095 11.991 26.016 18.674 36.269 1.111 1.706 4.113 5.388 4.13 5.387.034-.004.036-10.152 1.795-14.005 3.701-8.109 13.287-16.435 20.828-21.187 3.605-2.273 9.124-5.941 13.287-5.028 4.913 1.078 8.831 7.94 11.491 12.21 2.767 4.441 6.088 16.333 6.105 16.339.01.004 7.227-3.573 10.593-4.13 4.631-.767 11.52-1.386 15.621.898 5.573 3.105 10.381 11.528 11.671 17.775 3.06 14.822-5.703 35.292-12.244 48.94-.547 1.141-1.675 2.433-2.347 3.505-1.177 1.88-3.706 6.392-3.711 6.396-.113.091-61.016-4.068-143.341 20.038-54.923 16.082-88.092 39.353-88.186 39.332z" fill="#ff4949" transform="translate(-473.173 -426.392)"/></g><g fill-rule="nonzero" transform="matrix(1.01114 0 0 1.01259 -94.2227 45.5251)"><path d="m268.212 217.149h12.518v12.518h-12.518z"/><path d="m318.906 217.149h12.518v12.518h-12.518z"/><path d="m310.665 307.227-44.77-19.467v-10.78l44.77-19.378v12.696l-31.227 11.938 31.227 12.384z"/><path d="m314.095 324.6h52.03v8.107h-52.03z"/></g></g></g></svg>

<?xml version="1.0" encoding="UTF-8" standalone="no"?>
<!DOCTYPE svg PUBLIC "-//W3C//DTD SVG 1.1//EN" "http://www.w3.org/Graphics/SVG/1.1/DTD/svg11.dtd">
<svg width="100%" height="100%" viewBox="0 0 512 512" version="1.1" xmlns="http://www.w3.org/2000/svg" xmlns:xlink="http://www.w3.org/1999/xlink" xml:space="preserve" xmlns:serif="http://www.serif.com/" style="fill-rule:evenodd;clip-rule:evenodd;stroke-linecap:round;stroke-linejoin:round;stroke-miterlimit:1.5;">
    <g transform="matrix(1.11196,0,0,1.11196,-28.6616,-28.6616)">
        <g transform="matrix(1.16083,0,0,1.16067,-88.5519,-45.9999)">
            <path d="M488.873,164.165C488.873,111.165 445.85,68.136 392.857,68.136L200.774,68.136C147.781,68.136 104.758,111.165 104.758,164.165L104.758,356.223C104.758,409.222 147.781,452.251 200.774,452.251L392.857,452.251C445.85,452.251 488.873,409.222 488.873,356.223L488.873,164.165Z" style="stroke:white;stroke-width:5.81px;"/>
        </g>
        <g transform="matrix(0.988981,0,0,0.987568,-37.5449,-0.959124)">
            <path d="M488.873,158.426C488.873,108.594 448.473,68.136 398.712,68.136L194.919,68.136C145.158,68.136 104.758,108.594 104.758,158.426L104.758,361.962C104.758,411.794 145.158,452.251 194.919,452.251L398.712,452.251C448.473,452.251 488.873,411.794 488.873,361.962L488.873,158.426Z" style="fill:rgb(50,50,50);"/>
            <clipPath id="_clip1">
                <path d="M488.873,158.426C488.873,108.594 448.473,68.136 398.712,68.136L194.919,68.136C145.158,68.136 104.758,108.594 104.758,158.426L104.758,361.962C104.758,411.794 145.158,452.251 194.919,452.251L398.712,452.251C448.473,452.251 488.873,411.794 488.873,361.962L488.873,158.426Z"/>
            </clipPath>
            <g clip-path="url(#_clip1)">
                <g transform="matrix(0.523858,0,0,0.524607,296.816,353.042)">
                    <g transform="matrix(1,0,0,1,-323.5,-470)">
                        <clipPath id="_clip2">
                            <rect x="0" y="0" width="647" height="940"/>
                        </clipPath>
                        <g clip-path="url(#_clip2)">
                            <g id="dark-fill" serif:id="dark fill" transform="matrix(1,0,0,1,-473.173,-426.392)">
                                <path d="M706.409,687.974C660.899,678.325 585.938,685.498 554.669,719.943C533.503,743.259 539.864,792.101 537.558,823.506C534.242,868.65 515.565,937.013 541.16,974.347C599.159,1058.95 767.493,1061.96 869.858,1068.45C894.393,1070.01 931.973,1075.02 951.358,1059.9C984.497,1034.05 1000.49,965.984 990.08,925.268C975.707,869.063 893.238,830.507 848.696,793.338C807.935,759.326 758.37,698.991 706.409,687.974Z" style="fill:rgb(66,66,66);"/>
                            </g>
                            <g id="lower-beak" serif:id="lower beak" transform="matrix(1,0,0,1,-473.173,-426.392)">
                                <path d="M562.89,854.937C562.323,855.837 573.637,870.7 580.16,875.381C586.672,880.052 597.126,883.751 605.013,885.176C613.082,886.634 624.428,886.814 632.339,884.661C635.117,883.906 638.922,882.421 640.899,880.33C647.231,873.63 652.436,852.214 650.751,851.224C649.403,850.433 644.728,855.179 641.986,856.587C635.863,859.73 627.533,864.136 620.741,865.249C611.555,866.754 598.961,864.551 589.805,862.878C581.724,861.401 563.484,853.994 562.89,854.937Z" style="fill:rgb(201,110,61);"/>
                            </g>
                            <g id="upper-beak" serif:id="upper beak" transform="matrix(1,0,0,1,-473.173,-426.392)">
                                <path d="M561.623,844.452C560.517,841.034 575.411,827.624 583.444,823.323C590.933,819.313 602.599,817.423 611.09,817.202C618.348,817.013 628.699,817.416 634.984,821.052C641.07,824.574 649.999,836.764 649.794,839.219C649.64,841.062 641.374,846.618 633.997,849.29C627.443,851.664 618.079,853.347 611.09,853.635C598.925,854.136 582.525,852 570.806,848.697C567.841,847.862 561.991,845.59 561.623,844.452Z" style="fill:rgb(255,170,94);"/>
                            </g>
                            <g id="body" transform="matrix(1,0,0,1,-473.173,-426.392)">
                                <path d="M567.505,616.243C560.313,621.462 550.686,628.521 544.487,634.889C529.619,650.16 511.374,672.814 502.474,692.18C483.77,732.88 473.554,793.798 473.192,838.589C472.603,911.468 485.37,1013.41 521.571,1076.66C542.188,1112.69 584.29,1153.77 621.297,1172.57C667.519,1196.05 740.263,1204.85 791.893,1200.15C850.09,1194.86 931.328,1172.56 975.013,1133.74C1018.31,1095.27 1038.6,1014.36 1061.86,961.32C1065.27,953.536 1072.17,934.956 1072.2,934.944C1072.22,934.933 1091.55,945.867 1098.47,944.995C1103.55,944.356 1113.51,939.395 1115.7,933.597C1117.37,929.167 1115.18,921.848 1112.15,918.216C1109.4,914.939 1103.28,913.426 1099.11,912.478C1093.49,911.199 1079.91,912.094 1079.9,912.075C1079.9,912.055 1093.19,904.507 1098.36,900.513C1103.03,896.908 1109.25,891.849 1112.7,887.059C1115.46,883.209 1120.86,877.253 1119.39,872.744C1117.67,867.452 1108.41,864.964 1102.88,864.284C1099.56,863.874 1094.95,864.989 1091.93,866.433C1085.75,869.388 1075.02,881.785 1075,881.771C1074.99,881.763 1077.42,872.398 1077.14,868.323C1076.94,865.494 1076.57,861.199 1074.52,859.243C1072.39,857.214 1067.8,856.232 1064.97,857.018C1059.41,858.56 1054.12,865.981 1052.25,871.436C1048.97,880.962 1055.9,904.791 1055.88,904.818C1055.87,904.835 1034.31,909.477 1034.29,909.474C1034.25,909.471 1013.54,901.751 1006.43,895.724C990.028,881.81 973.48,856.29 967.174,835.724C962.459,820.341 966.999,798.137 965.472,782.121C962.909,755.25 960.267,718.603 950.68,693.371C938.46,661.207 914.87,619.206 888.695,596.873C865.886,577.411 826.593,563.195 797.48,556.019C784.71,552.871 766.948,551.533 753.81,552.146C724.169,553.527 685.438,563.887 656.96,572.219C641.815,576.65 621.767,583.476 607.653,590.533C594.861,596.93 579.08,607.842 567.505,616.243ZM882.665,879.493C886.189,884.473 890.747,894.072 894.33,899.016C902.649,910.495 914.858,924.968 924.164,935.661C929.226,941.477 938.354,949.914 941.597,954.546C942.272,955.51 944.753,958.258 944.197,959.222C943.457,960.503 939.122,958.872 937.115,958.582C932.225,957.875 923.444,952.682 920.16,955.022C919.422,955.549 919.638,959.817 920.031,961.818C920.989,966.707 925.802,972.016 927.194,976.799C928.269,980.495 931.653,986.896 928.84,989.523C925.379,992.755 918.172,986.646 913.58,985.487C910.935,984.82 906.808,981.57 904.742,983.352C903.094,984.772 904.63,988.449 904.961,990.599C905.486,994 907.291,998.285 908.215,1001.6C909.69,1006.89 912.093,1013.88 912.826,1019.33C913.615,1025.18 917.836,1035.55 913.053,1039.02C899.387,1048.93 884.327,1011.86 873.981,998.523C856.854,976.438 827.368,926.817 819.511,909.58C825.188,925.721 847.045,985.878 863.113,1010.75C870.977,1022.92 882.109,1040.28 894.873,1047.14C901.974,1050.95 914.467,1055.98 921.34,1051.77C926.213,1048.78 927.754,1039.62 927.957,1033.91C928.238,1026 922.614,1016.23 920.017,1008.76C918.904,1005.56 916.04,998.183 916.047,998.174C916.063,998.154 930.433,1009.47 937.883,1010.75C940.777,1011.24 945.352,1011.43 947.596,1009.53C950.17,1007.36 950.99,1002.08 950.637,998.724C950.009,992.76 943.385,986.752 940.501,981.494C938.147,977.202 933.054,966.974 933.068,966.966C933.078,966.961 938.648,973.283 941.852,974.736C946.031,976.632 952.967,978.509 957.056,976.425C959.535,975.162 962.1,971.438 962.123,968.656C962.188,960.817 950.383,954.63 945.231,948.722C928.323,929.338 890.154,887.611 882.665,879.493Z" style="fill:rgb(255,223,94);"/>
                            </g>
                            <g id="right-leg" serif:id="right leg">
                            </g>
                            <g id="left-leg" serif:id="left leg">
                            </g>
                            <g id="top" transform="matrix(1,0,0,1,-473.173,-426.392)">
                                <path d="M567.473,594.884C567.464,594.882 562.355,591.169 560.34,589.362C543.564,574.318 517.294,555.124 509.663,533.921C505.726,522.982 502.464,504.296 509.663,495.167C513.538,490.253 523.195,488.578 529.453,488.57C537.041,488.559 546.712,493.166 553.365,496.815C564.613,502.984 586.319,524.058 586.349,524.027C586.372,524.002 572.358,504.218 569.857,494.342C566.881,482.589 567.044,465.503 570.681,453.938C573.419,445.232 579.15,432.724 587.173,428.376C592.18,425.662 600.635,426.084 606.138,427.551C611.509,428.984 618.061,433.336 621.805,437.446C627.169,443.335 630.673,453.856 633.348,461.359C635.827,468.31 639.098,485.279 639.121,485.272C639.14,485.266 637.113,470.967 638.682,465.13C640.163,459.617 644.942,453.289 648.524,448.844C652.876,443.443 659.229,436.205 665.402,433.042C673.103,429.097 685.222,426.496 693.771,427.836C696.818,428.314 700.794,430.104 703.107,432.145C712.286,440.24 715.098,458.161 721.781,468.414C722.892,470.12 725.894,473.802 725.911,473.801C725.945,473.797 725.947,463.649 727.706,459.796C731.407,451.687 740.993,443.361 748.534,438.609C752.139,436.336 757.658,432.668 761.821,433.581C766.734,434.659 770.652,441.521 773.312,445.791C776.079,450.232 779.4,462.124 779.417,462.13C779.427,462.134 786.644,458.557 790.01,458C794.641,457.233 801.53,456.614 805.631,458.898C811.204,462.003 816.012,470.426 817.302,476.673C820.362,491.495 811.599,511.965 805.058,525.613C804.511,526.754 803.383,528.046 802.711,529.118C801.534,530.998 799.005,535.51 799,535.514C798.887,535.605 737.984,531.446 655.659,555.552C600.736,571.634 567.567,594.905 567.473,594.884Z" style="fill:rgb(255,73,73);"/>
                            </g>
                        </g>
                    </g>
                </g>
                <g transform="matrix(1.01114,0,0,1.01259,-94.2227,45.5251)">
                    <rect x="268.212" y="217.149" width="12.518" height="12.518" style="fill-rule:nonzero;"/>
                    <rect x="318.906" y="217.149" width="12.518" height="12.518" style="fill-rule:nonzero;"/>
                    <path d="M310.665,307.227L265.895,287.76L265.895,276.98L310.665,257.602L310.665,270.298L279.438,282.236L310.665,294.62L310.665,307.227Z" style="fill-rule:nonzero;"/>
                    <rect x="314.095" y="324.6" width="52.03" height="8.107" style="fill-rule:nonzero;"/>
                </g>
            </g>
        </g>
    </g>
</svg>
